src/assets/img/nosotras_ojos.svg

<svg fill="none" height="150" viewBox="0 0 950 150" width="950" xmlns="http://www.w3.org/2000/svg" xmlns:xlink="http://www.w3.org/1999/xlink"><mask id="a" height="141" maskUnits="userSpaceOnUse" width="910" x="20" y="5"><path clip-rule="evenodd" d="m806.606 138.392c-10.675 1.879-21.528 3.027-32.455 3.569-11.484.571-23.046.367-34.595-.48-60.094-4.406-119.646-27.471-163.439-65.1429 14.741-17.9532 52.831-55.2228 122.546-67.48293 12.921-2.27568 26.108-3.44504 39.368-3.76836 11.535-.27987 23.121.11243 34.683 1.24286 57.689 5.62593 114.345 28.36823 156.443 64.57583-14.743 17.9535-52.834 55.2235-122.551 67.4865zm-556.148 3.396c-10.676 1.873-21.529 3.016-32.456 3.552-11.485.565-23.046.356-34.594-.496-60.091-4.436-119.6338-27.53-163.408-65.2228 14.7494-17.946 52.8576-55.1971 122.579-67.4234 12.922-2.26936 26.109-3.43222 39.371-3.74926 11.534-.27408 23.12.12378 34.68 1.25822 57.687 5.65564 114.332 28.42554 156.413 64.65364-14.753 17.9464-52.861 55.1976-122.585 67.4276z" fill="#fff" fill-rule="evenodd"/></mask><path clip-rule="evenodd" d="m806.606 138.392c-10.675 1.879-21.528 3.027-32.455 3.569-11.484.571-23.046.367-34.595-.48-60.094-4.406-119.646-27.471-163.439-65.1429 14.741-17.9532 52.831-55.2228 122.546-67.48293 12.921-2.27568 26.108-3.44504 39.368-3.76836 11.535-.27987 23.121.11243 34.683 1.24286 57.689 5.62593 114.345 28.36823 156.443 64.57583-14.743 17.9535-52.834 55.2235-122.551 67.4865zm-556.148 3.396c-10.676 1.873-21.529 3.016-32.456 3.552-11.485.565-23.046.356-34.594-.496-60.091-4.436-119.6338-27.53-163.408-65.2228 14.7494-17.946 52.8576-55.1971 122.579-67.4234 12.922-2.26936 26.109-3.43222 39.371-3.74926 11.534-.27408 23.12.12378 34.68 1.25822 57.687 5.65564 114.332 28.42554 156.413 64.65364-14.753 17.9464-52.861 55.1976-122.585 67.4276z" fill="#fff" fill-rule="evenodd"/><g mask="url(#a)"><path clip-rule="evenodd" d="m739.552 141.489 18.271 17.448 16.197-16.963.126-.006 67.058-70.2259-16.732-15.9777-.001-.0044-70.584-67.3987-65.81 68.9234-.01.1308-17.438 18.2625 49.43 47.198zm-575.803-15.909 38.074 36.357 16.197-16.963.126-.006 67.058-70.2259-16.732-15.9777-.001-.0044-70.584-67.39867-65.81 68.92337-.01.1308-17.438 18.2625z" fill="#190b12" fill-rule="evenodd"/></g></svg>

<svg width="950" height="150" viewBox="0 0 950 150" fill="none" xmlns="http://www.w3.org/2000/svg">
<path fill-rule="evenodd" clip-rule="evenodd" d="M806.606 138.392C795.931 140.271 785.078 141.419 774.151 141.961C762.667 142.532 751.105 142.328 739.556 141.481C679.462 137.075 619.91 114.01 576.117 76.3381C590.858 58.3849 628.948 21.1153 698.663 8.85517C711.584 6.57949 724.771 5.41013 738.031 5.08681C749.566 4.80694 761.152 5.19924 772.714 6.32967C830.403 11.9556 887.059 34.6979 929.157 70.9055C914.414 88.859 876.323 126.129 806.606 138.392ZM250.458 141.788C239.782 143.661 228.929 144.804 218.002 145.34C206.517 145.905 194.956 145.696 183.408 144.844C123.317 140.408 63.7742 117.314 20 79.6212C34.7494 61.6752 72.8576 24.4241 142.579 12.1978C155.501 9.92844 168.688 8.76558 181.95 8.44854C193.484 8.17446 205.07 8.57232 216.63 9.70676C274.317 15.3624 330.962 38.1323 373.043 74.3604C358.29 92.3068 320.182 129.558 250.458 141.788Z" fill="white"/>
<mask id="mask0_170_4443" style="mask-type:alpha" maskUnits="userSpaceOnUse" x="20" y="5" width="910" height="141">
<path fill-rule="evenodd" clip-rule="evenodd" d="M806.606 138.392C795.931 140.271 785.078 141.419 774.151 141.961C762.667 142.532 751.105 142.328 739.556 141.481C679.462 137.075 619.91 114.01 576.117 76.3381C590.858 58.3849 628.948 21.1153 698.663 8.85517C711.584 6.57949 724.771 5.41013 738.031 5.08681C749.566 4.80694 761.152 5.19924 772.714 6.32967C830.403 11.9556 887.059 34.6979 929.157 70.9055C914.414 88.859 876.323 126.129 806.606 138.392ZM250.458 141.788C239.782 143.661 228.929 144.804 218.002 145.34C206.517 145.905 194.956 145.696 183.408 144.844C123.317 140.408 63.7742 117.314 20 79.6212C34.7494 61.6752 72.8576 24.4241 142.579 12.1978C155.501 9.92844 168.688 8.76558 181.95 8.44854C193.484 8.17446 205.07 8.57232 216.63 9.70676C274.317 15.3624 330.962 38.1323 373.043 74.3604C358.29 92.3068 320.182 129.558 250.458 141.788Z" fill="white"/>
</mask>
<g mask="url(#mask0_170_4443)">
<path fill-rule="evenodd" clip-rule="evenodd" d="M739.552 141.489L757.823 158.937L774.02 141.974L774.146 141.968L841.204 71.7421L824.472 55.7644L824.471 55.76L753.887 -11.6387L688.077 57.2847L688.067 57.4155L670.629 75.678L720.059 122.876L739.552 141.489ZM163.749 125.58L201.823 161.937L218.02 144.974L218.146 144.968L285.204 74.7421L268.472 58.7644L268.471 58.76L197.887 -8.63867L132.077 60.2847L132.067 60.4155L114.629 78.678L163.749 125.58Z" fill="#190B12"/>
</g>
</svg>
